Numix-Circle/48x48/apps/chrome-mknafpnfcafklkflhenhaldedggpciao-Default.svg

<?xml version="1.0" encoding="UTF-8" standalone="no"?>
<svg
   xmlns:dc="http://purl.org/dc/elements/1.1/"
   xmlns:cc="http://creativecommons.org/ns#"
   xmlns:rdf="http://www.w3.org/1999/02/22-rdf-syntax-ns#"
   xmlns:svg="http://www.w3.org/2000/svg"
   xmlns="http://www.w3.org/2000/svg"
   xmlns:xlink="http://www.w3.org/1999/xlink"
   xmlns:sodipodi="http://sodipodi.sourceforge.net/DTD/sodipodi-0.dtd"
   xmlns:inkscape="http://www.inkscape.org/namespaces/inkscape"
   viewBox="0 0 48 48"
   id="svg2"
   version="1.1"
   inkscape:version="0.48.5 r10040"
   width="100%"
   height="100%"
   sodipodi:docname="chrome-mknafpnfcafklkflhenhaldedggpciao-Default.svg">
  <metadata
     id="metadata73">
    <rdf:RDF>
      <cc:Work
         rdf:about="">
        <dc:format>image/svg+xml</dc:format>
        <dc:type
           rdf:resource="http://purl.org/dc/dcmitype/StillImage" />
      </cc:Work>
    </rdf:RDF>
  </metadata>
  <sodipodi:namedview
     pagecolor="#ffffff"
     bordercolor="#666666"
     borderopacity="1"
     objecttolerance="10"
     gridtolerance="10"
     guidetolerance="10"
     inkscape:pageopacity="0"
     inkscape:pageshadow="2"
     inkscape:window-width="1280"
     inkscape:window-height="998"
     id="namedview71"
     showgrid="true"
     inkscape:zoom="6.9532167"
     inkscape:cx="-14.67102"
     inkscape:cy="26.647316"
     inkscape:window-x="0"
     inkscape:window-y="0"
     inkscape:window-maximized="1"
     inkscape:current-layer="svg2">
    <inkscape:grid
       type="xygrid"
       id="grid3082" />
  </sodipodi:namedview>
  <defs
     id="defs4">
    <linearGradient
       id="linearGradient3922">
      <stop
         style="stop-color:#89afdc;stop-opacity:1;"
         offset="0"
         id="stop3924" />
      <stop
         style="stop-color:#99bae1;stop-opacity:1;"
         offset="1"
         id="stop3926" />
    </linearGradient>
    <linearGradient
       id="linearGradient3764"
       x1="1"
       x2="47"
       gradientUnits="userSpaceOnUse"
       gradientTransform="matrix(0,-1,1,0,-1.5e-6,47.999998)">
      <stop
         stop-color="#9db6d7"
         stop-opacity="1"
         id="stop7" />
      <stop
         offset="1"
         stop-color="#acc1dd"
         stop-opacity="1"
         id="stop9" />
    </linearGradient>
    <clipPath
       id="clipPath-307434934">
      <g
         transform="translate(0,-1004.3622)"
         id="g12">
        <path
           d="m -24 13 c 0 1.105 -0.672 2 -1.5 2 -0.828 0 -1.5 -0.895 -1.5 -2 0 -1.105 0.672 -2 1.5 -2 0.828 0 1.5 0.895 1.5 2 z"
           transform="matrix(15.333333,0,0,11.5,414.99999,878.8622)"
           fill="#1890d0"
           id="path14" />
      </g>
    </clipPath>
    <clipPath
       id="clipPath-316350911">
      <g
         transform="translate(0,-1004.3622)"
         id="g17">
        <path
           d="m -24 13 c 0 1.105 -0.672 2 -1.5 2 -0.828 0 -1.5 -0.895 -1.5 -2 0 -1.105 0.672 -2 1.5 -2 0.828 0 1.5 0.895 1.5 2 z"
           transform="matrix(15.333333,0,0,11.5,414.99999,878.8622)"
           fill="#1890d0"
           id="path19" />
      </g>
    </clipPath>
    <clipPath
       clipPathUnits="userSpaceOnUse"
       id="clipPath3078">
      <rect
         style="fill:#000000;fill-opacity:0.11764706;fill-rule:nonzero;stroke:none"
         id="rect3080"
         width="10.444806"
         height="13.680718"
         x="17.707632"
         y="16.34199" />
    </clipPath>
    <linearGradient
       inkscape:collect="always"
       xlink:href="#linearGradient3922"
       id="linearGradient3928"
       x1="1"
       y1="24"
       x2="47"
       y2="24"
       gradientUnits="userSpaceOnUse" />
    <linearGradient
       inkscape:collect="always"
       xlink:href="#linearGradient3922"
       id="linearGradient3930"
       gradientUnits="userSpaceOnUse"
       x1="1"
       y1="24"
       x2="47"
       y2="24" />
  </defs>
  <g
     id="g21">
    <path
       d="m 36.31 5 c 5.859 4.062 9.688 10.831 9.688 18.5 c 0 12.426 -10.07 22.5 -22.5 22.5 c -7.669 0 -14.438 -3.828 -18.5 -9.688 c 1.037 1.822 2.306 3.499 3.781 4.969 c 4.085 3.712 9.514 5.969 15.469 5.969 c 12.703 0 23 -10.298 23 -23 c 0 -5.954 -2.256 -11.384 -5.969 -15.469 c -1.469 -1.475 -3.147 -2.744 -4.969 -3.781 z m 4.969 3.781 c 3.854 4.113 6.219 9.637 6.219 15.719 c 0 12.703 -10.297 23 -23 23 c -6.081 0 -11.606 -2.364 -15.719 -6.219 c 4.16 4.144 9.883 6.719 16.219 6.719 c 12.703 0 23 -10.298 23 -23 c 0 -6.335 -2.575 -12.06 -6.719 -16.219 z"
       opacity="0.05"
       id="path23" />
    <path
       d="m 41.28 8.781 c 3.712 4.085 5.969 9.514 5.969 15.469 c 0 12.703 -10.297 23 -23 23 c -5.954 0 -11.384 -2.256 -15.469 -5.969 c 4.113 3.854 9.637 6.219 15.719 6.219 c 12.703 0 23 -10.298 23 -23 c 0 -6.081 -2.364 -11.606 -6.219 -15.719 z"
       opacity="0.1"
       id="path25" />
    <path
       d="m 31.25 2.375 c 8.615 3.154 14.75 11.417 14.75 21.13 c 0 12.426 -10.07 22.5 -22.5 22.5 c -9.708 0 -17.971 -6.135 -21.12 -14.75 a 23 23 0 0 0 44.875 -7 a 23 23 0 0 0 -16 -21.875 z"
       opacity="0.2"
       id="path27" />
  </g>
  <g
     id="g29"
     style="fill:url(#linearGradient3928);fill-opacity:1.0"
     transform="matrix(0,-1,1,0,0,48)">
    <path
       d="M 24,1 C 36.703,1 47,11.297 47,24 47,36.703 36.703,47 24,47 11.297,47 1,36.703 1,24 1,11.297 11.297,1 24,1 z"
       id="path31"
       style="fill:url(#linearGradient3930);fill-opacity:1.0"
       inkscape:connector-curvature="0" />
  </g>
  <g
     id="g33" />
  <g
     id="g67">
    <path
       d="m 40.03 7.531 c 3.712 4.084 5.969 9.514 5.969 15.469 0 12.703 -10.297 23 -23 23 c -5.954 0 -11.384 -2.256 -15.469 -5.969 4.178 4.291 10.01 6.969 16.469 6.969 c 12.703 0 23 -10.298 23 -23 0 -6.462 -2.677 -12.291 -6.969 -16.469 z"
       opacity="0.1"
       id="path69" />
  </g>
  <path
     id="path3008"
     d="M 25.71875,11.375 C 21.749939,11.5961 18,14.375 18,20 l 0,2 -3,0 0,3 0,9 c 0,3 2,5 4,5 l 12,0 c 2,0 4,-3 4,-5 l 0,-9 0,-3 0,-2 c 0,-5.84375 -4.783264,-8.87558 -9.28125,-8.625 z M 26.5,14.75 c 2.75,0 5.5,1.75 5.5,5.25 l 0,2 -11,0 0,-2 c 0,-3.5 2.75,-5.25 5.5,-5.25 z M 18,25 l 14,0 0,9 c 0,1 -1,1 -2,1 l -10,0 c -1,0 -1.993245,0 -1.96875,-1 L 18,34 18,25 z m 4.46875,2 c -0.828427,0 -1.5,0.671573 -1.5,1.5 0,0.828427 0.671573,1.5 1.5,1.5 0.828427,0 1.5,-0.671573 1.5,-1.5 0,-0.828427 -0.671573,-1.5 -1.5,-1.5 z M 28.5,27 C 27.671573,27 27,27.671573 27,28.5 27,29.328427 27.671573,30 28.5,30 29.328427,30 30,29.328427 30,28.5 30,27.671573 29.328427,27 28.5,27 z"
     style="fill:#000000;fill-opacity:1;fill-rule:nonzero;stroke:none;opacity:0.1"
     inkscape:connector-curvature="0" />
  <path
     style="fill:#ececec;fill-opacity:1;fill-rule:nonzero;stroke:none"
     d="M 24.71875 10.375 C 20.749939 10.5961 17 13.375 17 19 L 17 21 L 14 21 L 14 24 L 14 33 C 14 36 16 38 18 38 L 30 38 C 32 38 34 35 34 33 L 34 24 L 34 21 L 34 19 C 34 13.15625 29.216736 10.12442 24.71875 10.375 z M 25.5 13.75 C 28.25 13.75 31 15.5 31 19 L 31 21 L 20 21 L 20 19 C 20 15.5 22.75 13.75 25.5 13.75 z M 17 24 L 31 24 L 31 33 C 31 34 30 34 29 34 L 19 34 C 18 34 17.006755 34 17.03125 33 L 17 33 L 17 24 z M 21.46875 26 C 20.640323 26 19.96875 26.671573 19.96875 27.5 C 19.96875 28.328427 20.640323 29 21.46875 29 C 22.297177 29 22.96875 28.328427 22.96875 27.5 C 22.96875 26.671573 22.297177 26 21.46875 26 z M 27.5 26 C 26.671573 26 26 26.671573 26 27.5 C 26 28.328427 26.671573 29 27.5 29 C 28.328427 29 29 28.328427 29 27.5 C 29 26.671573 28.328427 26 27.5 26 z "
     id="rect3084" />
</svg>

<svg xmlns="http://www.w3.org/2000/svg" viewBox="0 0 48 48">
 <defs>
  <linearGradient id="linearGradient3928" x1="1" x2="47" gradientUnits="userSpaceOnUse">
   <stop style="stop-color:#89afdc;stop-opacity:1"/>
   <stop offset="1" style="stop-color:#99bae1;stop-opacity:1"/>
  </linearGradient>
 </defs>
 <g>
  <path d="m 36.31 5 c 5.859 4.062 9.688 10.831 9.688 18.5 c 0 12.426 -10.07 22.5 -22.5 22.5 c -7.669 0 -14.438 -3.828 -18.5 -9.688 c 1.037 1.822 2.306 3.499 3.781 4.969 c 4.085 3.712 9.514 5.969 15.469 5.969 c 12.703 0 23 -10.298 23 -23 c 0 -5.954 -2.256 -11.384 -5.969 -15.469 c -1.469 -1.475 -3.147 -2.744 -4.969 -3.781 z m 4.969 3.781 c 3.854 4.113 6.219 9.637 6.219 15.719 c 0 12.703 -10.297 23 -23 23 c -6.081 0 -11.606 -2.364 -15.719 -6.219 c 4.16 4.144 9.883 6.719 16.219 6.719 c 12.703 0 23 -10.298 23 -23 c 0 -6.335 -2.575 -12.06 -6.719 -16.219 z" style="opacity:0.05"/>
  <path d="m 41.28 8.781 c 3.712 4.085 5.969 9.514 5.969 15.469 c 0 12.703 -10.297 23 -23 23 c -5.954 0 -11.384 -2.256 -15.469 -5.969 c 4.113 3.854 9.637 6.219 15.719 6.219 c 12.703 0 23 -10.298 23 -23 c 0 -6.081 -2.364 -11.606 -6.219 -15.719 z" style="opacity:0.1"/>
  <path d="m 31.25 2.375 c 8.615 3.154 14.75 11.417 14.75 21.13 c 0 12.426 -10.07 22.5 -22.5 22.5 c -9.708 0 -17.971 -6.135 -21.12 -14.75 a 23 23 0 0 0 44.875 -7 a 23 23 0 0 0 -16 -21.875 z" style="opacity:0.2"/>
 </g>
 <g transform="matrix(0,-1,1,0,0,48)" style="fill:url(#linearGradient3928);fill-opacity:1">
  <path d="M 24,1 C 36.703,1 47,11.297 47,24 47,36.703 36.703,47 24,47 11.297,47 1,36.703 1,24 1,11.297 11.297,1 24,1 z"/>
 </g>
 <g>
  <path d="m 40.03 7.531 c 3.712 4.084 5.969 9.514 5.969 15.469 0 12.703 -10.297 23 -23 23 c -5.954 0 -11.384 -2.256 -15.469 -5.969 4.178 4.291 10.01 6.969 16.469 6.969 c 12.703 0 23 -10.298 23 -23 0 -6.462 -2.677 -12.291 -6.969 -16.469 z" style="opacity:0.1"/>
 </g>
 <path d="m 25.719 11.375 c -3.969 0.221 -7.719 3 -7.719 8.625 l 0 2 -3 0 0 3 0 9 c 0 3 2 5 4 5 l 12 0 c 2 0 4 -3 4 -5 l 0 -9 0 -3 0 -2 c 0 -5.844 -4.783 -8.876 -9.281 -8.625 z m 0.781 3.375 c 2.75 0 5.5 1.75 5.5 5.25 l 0 2 -11 0 0 -2 c 0 -3.5 2.75 -5.25 5.5 -5.25 z m -8.5 10.25 l 14 0 0 9 c 0 1 -1 1 -2 1 l -10 0 c -1 0 -1.993 0 -1.969 -1 l -0.031 0 0 -9 z m 4.469 2 c -0.828 0 -1.5 0.672 -1.5 1.5 0 0.828 0.672 1.5 1.5 1.5 0.828 0 1.5 -0.672 1.5 -1.5 0 -0.828 -0.672 -1.5 -1.5 -1.5 z m 6.03 0 c -0.828 0 -1.5 0.672 -1.5 1.5 0 0.828 0.672 1.5 1.5 1.5 0.828 0 1.5 -0.672 1.5 -1.5 0 -0.828 -0.672 -1.5 -1.5 -1.5 z" style="fill:#000;opacity:0.1;fill-opacity:1;stroke:none;fill-rule:nonzero"/>
 <path d="m 24.719 10.375 c -3.969 0.221 -7.719 3 -7.719 8.625 l 0 2 l -3 0 l 0 3 l 0 9 c 0 3 2 5 4 5 l 12 0 c 2 0 4 -3 4 -5 l 0 -9 l 0 -3 l 0 -2 c 0 -5.844 -4.783 -8.876 -9.281 -8.625 z m 0.781 3.375 c 2.75 0 5.5 1.75 5.5 5.25 l 0 2 l -11 0 l 0 -2 c 0 -3.5 2.75 -5.25 5.5 -5.25 z m -8.5 10.25 l 14 0 l 0 9 c 0 1 -1 1 -2 1 l -10 0 c -1 0 -1.993 0 -1.969 -1 l -0.031 0 l 0 -9 z m 4.469 2 c -0.828 0 -1.5 0.672 -1.5 1.5 c 0 0.828 0.672 1.5 1.5 1.5 c 0.828 0 1.5 -0.672 1.5 -1.5 c 0 -0.828 -0.672 -1.5 -1.5 -1.5 z m 6.03 0 c -0.828 0 -1.5 0.672 -1.5 1.5 c 0 0.828 0.672 1.5 1.5 1.5 c 0.828 0 1.5 -0.672 1.5 -1.5 c 0 -0.828 -0.672 -1.5 -1.5 -1.5 z" style="fill:#ececec;fill-opacity:1;stroke:none;fill-rule:nonzero"/>
</svg>
